_includes/icons/ios-beach.svg

<svg fill="#666" height="50" viewBox="0 0 50 50" width="50" xmlns="http://www.w3.org/2000/svg"><path d="m19 0c-6.847656 0-11.746094 5.847656-11.9375 13.09375-.003906.144531-.0625.261719-.0625.40625.007813.472656.34375.878906.808594.976563.460937.097656.929687-.140625 1.128906-.570313 2.21875-5.226562 7.855469-6.695312 11.78125-5.46875-2.695312.199219-5.425781.742188-7.78125 2.1875-3.417969 2.097656-5.9375 5.75-5.9375 10.875 0 3.75.851563 7.253906 3.09375 11.84375.207031.394531.644531.605469 1.078125.527344.4375-.078125.773438-.429688.828125-.871094.824219-7.609375 3.976563-11.820312 7.46875-14.34375 1.835938-1.328125 3.765625-2.160156 5.53125-2.71875-.128906 14.464844-4.679687 22.015625-9.15625 26.03125-4.613281 4.136719-9.125 4.53125-9.125 4.53125-.03125 0-.0625 0-.09375 0-3.226562-1.070312-5.0625-2.3125-5.0625-2.3125-.214844-.160156-.484375-.226562-.75-.1875-.398437.074219-.7148437.382813-.796875.78125-.0820313.398438.085938.804688.421875 1.03125 0 0 5.976563 4.1875 15.5625 4.1875 3.464844 0 6.386719-.777344 9.125-1.625.058594-.019531.128906-.011719.1875-.03125.097656-.015625.191406-.046875.28125-.09375.011719-.003906.019531-.027344.03125-.03125.308594-.097656.632813-.183594.9375-.28125 3.144531-1 6.074219-1.9375 9.4375-1.9375 6.722656 0 12.4375 3.8125 12.4375 3.8125.285156.273438.703125.351563 1.070313.199219.363281-.148438.605468-.5.617187-.894531.011719-.394532-.207031-.757813-.5625-.929688 0 0-6.085937-4.1875-13.5625-4.1875-3.101562 0-5.785156.742188-8.40625 1.5625.746094-1.429687 1.339844-3.132812 1.84375-5 .828125-3.074219 1.371094-6.625 1.75-10.09375.699219-6.398437.800781-12.445312.8125-15.1875 2.933594.578125 5.460938 2.023438 7.375 4.25 2.539063 2.953125 4.011719 7.339844 3.625 13.1875-.027344.445313.238281.851563.652344 1.011719.417969.15625.886719.027344 1.160156-.324219 3.332031-4.339844 5.1875-7.488281 5.1875-11.5 0-5.199219-3.859375-8.738281-8.09375-10.71875-3.117187-1.457031-6.191406-1.941406-8.8125-1.96875.050781-.035156.039063-.058594.09375-.09375.929688-.578125 2.125-1.074219 3.5-1.125h.03125c2.710938.007813 7.210938 1.28125 9.9375 4.28125.304688.328125.785156.421875 1.1875.226563.402344-.195313.632813-.628907.5625-1.070313-.671875-4.230469-1.976562-7.078125-3.75-8.90625-1.773437-1.828125-3.996094-2.53125-6.15625-2.53125-4.820312 0-8.566406 2.917969-9.46875 3.65625-2.964844-2.699219-7.035156-3.65625-10.03125-3.65625zm0 2c2.773438 0 6.835938 1 9.25 3.59375.367188.40625.988281.445313 1.40625.09375 0 0 4.480469-3.6875 8.84375-3.6875 1.742188 0 3.308594.515625 4.6875 1.9375.953125.984375 1.722656 2.6875 2.375 4.8125-2.941406-1.960937-6.363281-2.75-8.875-2.75-.011719 0-.019531 0-.03125 0-1.8125.058594-3.375.664063-4.5625 1.40625-1.1875.742188-1.992187 1.515625-2.40625 2.34375-.175781.355469-.132812.78125.117188 1.089844s.65625.445312 1.039062.347656c1.78125-.433594 6.378906.046875 10.21875 1.84375s6.9375 4.675781 6.9375 8.875c0 2.554688-1.203125 4.875-3.03125 7.59375-.257812-4.675781-1.679687-8.539062-4.0625-11.3125-2.9375-3.421875-7.203125-5.1875-11.90625-5.1875-.050781-.003906-.105469-.003906-.15625 0-.847656.125-1.945312.316406-3.15625.625-.011719 0-.019531 0-.03125 0-2.214844.566406-4.855469 1.554688-7.375 3.375-3.289062 2.378906-6.203125 6.339844-7.59375 12.3125-1.050781-2.789062-1.6875-5.292969-1.6875-7.8125 0-4.476562 2.066406-7.324219 5-9.125s6.804688-2.4375 10.09375-2.0625c.425781.050781.839844-.175781 1.03125-.5625.1875-.382812.113281-.847656-.1875-1.15625-3.652344-3.746094-10.839844-3.59375-15.25.78125 1.359375-4.375 4.808594-7.375 9.3125-7.375zm10.09375 13h.0625c.285156.003906.566406.046875.84375.0625-.007812 2.613281-.082031 8.796875-.78125 15.21875-.371094 3.40625-.933594 6.832031-1.71875 9.75-.761719 2.824219-1.761719 5.164063-2.90625 6.46875-2.675781.820313-5.414062 1.5-8.59375 1.5-1.996094 0-3.8125-.175781-5.4375-.46875 1.886719-.714844 4.257813-1.941406 6.625-4.0625 4.972656-4.457031 9.789063-12.828125 9.8125-28.0625.777344-.175781 1.496094-.316406 2.09375-.40625z"/></svg>

<svg xmlns="http://www.w3.org/2000/svg" viewBox="0 0 50 50" width="50" height="50" fill="#666"><path d="M 19 0 C 12.152344 0 7.253906 5.847656 7.0625 13.09375 C 7.058594 13.238281 7 13.355469 7 13.5 C 7.007813 13.972656 7.34375 14.378906 7.808594 14.476563 C 8.269531 14.574219 8.738281 14.335938 8.9375 13.90625 C 11.15625 8.679688 16.792969 7.210938 20.71875 8.4375 C 18.023438 8.636719 15.292969 9.179688 12.9375 10.625 C 9.519531 12.722656 7 16.375 7 21.5 C 7 25.25 7.851563 28.753906 10.09375 33.34375 C 10.300781 33.738281 10.738281 33.949219 11.171875 33.871094 C 11.609375 33.792969 11.945313 33.441406 12 33 C 12.824219 25.390625 15.976563 21.179688 19.46875 18.65625 C 21.304688 17.328125 23.234375 16.496094 25 15.9375 C 24.871094 30.402344 20.320313 37.953125 15.84375 41.96875 C 11.230469 46.105469 6.71875 46.5 6.71875 46.5 C 6.6875 46.5 6.65625 46.5 6.625 46.5 C 3.398438 45.429688 1.5625 44.1875 1.5625 44.1875 C 1.347656 44.027344 1.078125 43.960938 0.8125 44 C 0.414063 44.074219 0.0976563 44.382813 0.015625 44.78125 C -0.0664063 45.179688 0.101563 45.585938 0.4375 45.8125 C 0.4375 45.8125 6.414063 50 16 50 C 19.464844 50 22.386719 49.222656 25.125 48.375 C 25.183594 48.355469 25.253906 48.363281 25.3125 48.34375 C 25.410156 48.328125 25.503906 48.296875 25.59375 48.25 C 25.605469 48.246094 25.613281 48.222656 25.625 48.21875 C 25.933594 48.121094 26.257813 48.035156 26.5625 47.9375 C 29.707031 46.9375 32.636719 46 36 46 C 42.722656 46 48.4375 49.8125 48.4375 49.8125 C 48.722656 50.085938 49.140625 50.164063 49.507813 50.011719 C 49.871094 49.863281 50.113281 49.511719 50.125 49.117188 C 50.136719 48.722656 49.917969 48.359375 49.5625 48.1875 C 49.5625 48.1875 43.476563 44 36 44 C 32.898438 44 30.214844 44.742188 27.59375 45.5625 C 28.339844 44.132813 28.933594 42.429688 29.4375 40.5625 C 30.265625 37.488281 30.808594 33.9375 31.1875 30.46875 C 31.886719 24.070313 31.988281 18.023438 32 15.28125 C 34.933594 15.859375 37.460938 17.304688 39.375 19.53125 C 41.914063 22.484375 43.386719 26.871094 43 32.71875 C 42.972656 33.164063 43.238281 33.570313 43.652344 33.730469 C 44.070313 33.886719 44.539063 33.757813 44.8125 33.40625 C 48.144531 29.066406 50 25.917969 50 21.90625 C 50 16.707031 46.140625 13.167969 41.90625 11.1875 C 38.789063 9.730469 35.714844 9.246094 33.09375 9.21875 C 33.144531 9.183594 33.132813 9.160156 33.1875 9.125 C 34.117188 8.546875 35.3125 8.050781 36.6875 8 C 36.695313 8 36.710938 8 36.71875 8 C 39.429688 8.007813 43.929688 9.28125 46.65625 12.28125 C 46.960938 12.609375 47.441406 12.703125 47.84375 12.507813 C 48.246094 12.3125 48.476563 11.878906 48.40625 11.4375 C 47.734375 7.207031 46.429688 4.359375 44.65625 2.53125 C 42.882813 0.703125 40.660156 0 38.5 0 C 33.679688 0 29.933594 2.917969 29.03125 3.65625 C 26.066406 0.957031 21.996094 0 19 0 Z M 19 2 C 21.773438 2 25.835938 3 28.25 5.59375 C 28.617188 6 29.238281 6.039063 29.65625 5.6875 C 29.65625 5.6875 34.136719 2 38.5 2 C 40.242188 2 41.808594 2.515625 43.1875 3.9375 C 44.140625 4.921875 44.910156 6.625 45.5625 8.75 C 42.621094 6.789063 39.199219 6 36.6875 6 C 36.675781 6 36.667969 6 36.65625 6 C 34.84375 6.058594 33.28125 6.664063 32.09375 7.40625 C 30.90625 8.148438 30.101563 8.921875 29.6875 9.75 C 29.511719 10.105469 29.554688 10.53125 29.804688 10.839844 C 30.054688 11.148438 30.460938 11.285156 30.84375 11.1875 C 32.625 10.753906 37.222656 11.234375 41.0625 13.03125 C 44.902344 14.828125 48 17.707031 48 21.90625 C 48 24.460938 46.796875 26.78125 44.96875 29.5 C 44.710938 24.824219 43.289063 20.960938 40.90625 18.1875 C 37.96875 14.765625 33.703125 13 29 13 C 28.949219 12.996094 28.894531 12.996094 28.84375 13 C 27.996094 13.125 26.898438 13.316406 25.6875 13.625 C 25.675781 13.625 25.667969 13.625 25.65625 13.625 C 23.441406 14.191406 20.800781 15.179688 18.28125 17 C 14.992188 19.378906 12.078125 23.339844 10.6875 29.3125 C 9.636719 26.523438 9 24.019531 9 21.5 C 9 17.023438 11.066406 14.175781 14 12.375 C 16.933594 10.574219 20.804688 9.9375 24.09375 10.3125 C 24.519531 10.363281 24.933594 10.136719 25.125 9.75 C 25.3125 9.367188 25.238281 8.902344 24.9375 8.59375 C 21.285156 4.847656 14.097656 5 9.6875 9.375 C 11.046875 5 14.496094 2 19 2 Z M 29.09375 15 C 29.113281 15 29.136719 15 29.15625 15 C 29.441406 15.003906 29.722656 15.046875 30 15.0625 C 29.992188 17.675781 29.917969 23.859375 29.21875 30.28125 C 28.847656 33.6875 28.285156 37.113281 27.5 40.03125 C 26.738281 42.855469 25.738281 45.195313 24.59375 46.5 C 21.917969 47.320313 19.179688 48 16 48 C 14.003906 48 12.1875 47.824219 10.5625 47.53125 C 12.449219 46.816406 14.820313 45.589844 17.1875 43.46875 C 22.160156 39.011719 26.976563 30.640625 27 15.40625 C 27.777344 15.230469 28.496094 15.089844 29.09375 15 Z"/></svg>
